X: 1517
T: Cadrill - Kozaken
S: Ur Carl-Gustaf Tullbergs notbok
O: Högahult, Nöbbele, Småland
R: Kadrilj
M: 2/4
K: Dm
L: 1/16
dcde gfed|f2f2 e4|^c2e2 A2c2|d4 d4|^c2e2 A2c2|defg agfe|^c2e2 A2c2|d4 d4::
a4 g4|f2f2 e4|a2a2 g2g2|f2f2 e4|A^GA=B ^cABc|defg agfe|^c2e2 A2c2|d4 d4:| 
(:musicend:)

Detta verkar vara en anpassning av en finsk visa, se: http://www.youtube.com/watch?v=qrFp6OQEmok \\
Jag har en variant av den efter Eva Tjörnebo med svensk text - ska försöka lägga upp den vid tillfälle.
Finns någon information om Carl-Gustav Tullberg och hans notsamling? T ex. hur gammal den är. /Nils

(:music:)
